X: 23661
T: Limestone Rock, The
R: reel
M: 4/4
K: Gmajor
dc|:BG~G2 AGFG|DG~G2 A2dc|BG~G2 AGAB|1 cABG A2 dc:|2 cABG A2Bd||
~e3f edBd|eBdB A2Bd|eB~B2 gB~B2|cABG A2Bd|
~e3d eaab|gedB A2BA|GABd ~g3b|agef gedc||

